X:20
T: BAYERN O HEIMATLAND
N: B0023
O: Europa, Mitteleuropa, Deutschland, Bayern
R: politisch, national, Vaterlands - Lied
M: 4/4
L: 1/8
K: Bb
 | F4D2B2 | A3GF4 |
F4D2G2 | F3ED4 |
D4G2=E2 | F3GA4 |
c3BA2G2 | F6z2 |
F4C2E2 | D2G2F4 |
B4A2G2 | c3AF4 |
F4D2B2 | B3AG4 |
F2G2A2Bc | B6z2 |
F4C2E2 | D2G2F4 |
B4A2G2 | c3AF4 |
F4D2B2 | B3AG4 |
F2G2A2Bc | B6z2

@@@ Tune index: 1823
